X: 6
T:Bean Setters, Brackley
M:6/8
L:1/8
A:Brackley
P:A(AB4)2
K:G
P:A
|:BAG D2D|EFG FED|BAG D2D|E2D G3:|
P:B
  B2B A2A|G2G FED|G2B A2F|G2B d3 |
  e2e d2B|c2c BAG|GAB c2B|AGF G3||
